icons/1_Primary/IFTTT.svg

<svg xmlns="http://www.w3.org/2000/svg" width="1024" height="1024" fill="none">
   <g clip-path="url(#a)">
      <path fill="#56595B" d="M512 1024c282.77 0 512-229.23 512-512S794.77 0 512 0 0 229.23 0 512s229.23 512 512 512Z"/>
      <path fill="#fff" d="M224 432.9h49v154.3h-49V432.9Zm280.5 0h-84.2V482h35.1v105.2h49.1V481.9h35.1v-49.1h-35.1v.1Zm133.2 0h-84.2V482h35.1v105.2h49.1V481.9h35.1v-49.1h-35.1v.1Zm133.3 0h-84.2V482h35.1v105.2H771V481.9h35v-49.1h-35v.1Zm-364.7 49v-49.1H294.1v154.3h49.1V545h42.1v-49h-42.1v-14h63.1v-.1Z"/>
   </g>
   <defs>
      <clipPath id="a">
         <path fill="#fff" d="M0 0h1024v1024H0z"/>
      </clipPath>
   </defs>
</svg>

<svg width="1024" height="1024" viewBox="0 0 1024 1024" fill="none" xmlns="http://www.w3.org/2000/svg">
<g clip-path="url(#clip0_2_2490)">
<path d="M512 1024C794.77 1024 1024 794.77 1024 512C1024 229.23 794.77 0 512 0C229.23 0 0 229.23 0 512C0 794.77 229.23 1024 512 1024Z" fill="#56595B"/>
<path d="M224 432.9H273V587.2H224V432.9ZM504.5 432.9H420.3V482H455.4V587.2H504.5V481.9H539.6V432.8H504.5V432.9ZM637.7 432.9H553.5V482H588.6V587.2H637.7V481.9H672.8V432.8H637.7V432.9ZM771 432.9H686.8V482H721.9V587.2H771V481.9H806V432.8H771V432.9ZM406.3 481.9V432.8H294.1V587.1H343.2V545H385.3V496H343.2V482H406.3V481.9Z" fill="white"/>
</g>
<defs>
<clipPath id="clip0_2_2490">
<rect width="1024" height="1024" fill="white"/>
</clipPath>
</defs>
</svg>
